graphics/svgs/icons/ci-w.svg

<?xml version="1.0" encoding="UTF-8" standalone="no"?>
<svg
   xmlns:dc="http://purl.org/dc/elements/1.1/"
   xmlns:cc="http://creativecommons.org/ns#"
   xmlns:rdf="http://www.w3.org/1999/02/22-rdf-syntax-ns#"
   xmlns:svg="http://www.w3.org/2000/svg"
   xmlns="http://www.w3.org/2000/svg"
   version="1.1"
   id="svg4498"
   xml:space="preserve"
   width="64.426666"
   height="64.426666"
   viewBox="0 0 64.426666 64.426666">
  <metadata
   id="metadata4504">
    <rdf:RDF>
      <cc:Work
   rdf:about="">
        <dc:format>image/svg+xml</dc:format>

        <dc:type
   rdf:resource="http://purl.org/dc/dcmitype/StillImage" />

        <dc:title></dc:title>

      </cc:Work>

    </rdf:RDF>

  </metadata>

  <defs
   id="defs4502">
    
  
      
    
        
      
          
        
            
            
            
          
              
            
              
            
              
            
                
              
                
              </defs>

  
  <path
   id="path4626"
   d="m 15.2745,64.426334 c -8.413294,0 -15.27604053,-6.862747 -15.27604053,-15.276041 V 15.277898 C -0.00154053,6.8646032 6.861206,0.00185616 15.2745,0.00185616 h 33.875 c 8.413294,0 15.276041,6.86274704 15.276041,15.27604184 v 33.872395 c 0,8.413294 -6.862747,15.276041 -15.276041,15.276041 z m 0,-3.984375 h 33.875 c 6.259638,0 11.289062,-5.032028 11.289062,-11.291666 V 15.277898 c 0,-6.2596393 -5.029424,-11.2916669 -11.289062,-11.2916669 h -33.875 c -6.2596381,0 -11.289062,5.0320276 -11.289062,11.2916669 v 33.872395 c 0,6.259638 5.0294239,11.291666 11.289062,11.291666 z"
   style="color:#000000;font-style:normal;font-variant:normal;font-weight:normal;font-stretch:normal;font-size:medium;line-height:normal;font-family:sans-serif;font-variant-ligatures:normal;font-variant-position:normal;font-variant-caps:normal;font-variant-numeric:normal;font-variant-alternates:normal;font-variant-east-asian:normal;font-feature-settings:normal;font-variation-settings:normal;text-indent:0;text-align:start;text-decoration:none;text-decoration-line:none;text-decoration-style:solid;text-decoration-color:#000000;letter-spacing:normal;word-spacing:normal;text-transform:none;writing-mode:lr-tb;direction:ltr;text-orientation:mixed;dominant-baseline:auto;baseline-shift:baseline;text-anchor:start;white-space:normal;shape-padding:0;shape-margin:0;inline-size:0;clip-rule:nonzero;display:inline;overflow:visible;visibility:visible;opacity:1;isolation:auto;mix-blend-mode:normal;color-interpolation:sRGB;color-interpolation-filters:linearRGB;solid-color:#000000;solid-opacity:1;vector-effect:none;fill:#283891;fill-opacity:1;fill-rule:nonzero;stroke:none;stroke-width:3.98511;stroke-linecap:butt;stroke-linejoin:miter;stroke-miterlimit:10;stroke-dasharray:none;stroke-dashoffset:0;stroke-opacity:1;color-rendering:auto;image-rendering:auto;shape-rendering:auto;text-rendering:auto;enable-background:accumulate;stop-color:#000000;stop-opacity:1" />
<path
   d="m 35.421875,9.8691406 c -0.660384,-0.050917 -1.451039,0.1723244 -1.853516,0.5781254 l -0.52539,0.53125 c -0.56081,0.565451 -0.956057,1.960677 -0.775391,2.736328 l 0.166016,0.722656 c 0.297506,1.277162 0.152332,2.975403 -0.357422,4.183594 l -0.02539,0.06641 c -0.540723,1.281535 -1.823722,2.35724 -3.179687,2.667969 h -0.002 l -0.06836,0.01563 c -1.27839,0.292149 -2.979486,0.13979 -4.185547,-0.375 L 23.935501,20.70704 c -0.732483,-0.312648 -2.17581,-0.166973 -2.830078,0.28711 l -0.615235,0.427734 c -0.626084,0.434522 -1.051799,1.602553 -0.851562,2.337891 l 0.195312,0.724609 c 0.209247,0.768424 1.220392,1.807734 1.982422,2.039063 l 0.710938,0.214843 c 1.254816,0.380916 2.653865,1.3568 3.445312,2.402344 l 0.04102,0.05664 c 0.839961,1.109666 1.132443,2.757858 0.722656,4.08789 l -0.02148,0.06836 v 0.002 c -0.386558,1.25272 -1.367669,2.648837 -2.416016,3.435547 l -0.591797,0.443359 c -0.637009,0.478036 -1.232183,1.802079 -1.166015,2.595703 l 0.0625,0.744141 v 0.0039 c 0.06444,0.759156 0.865186,1.708321 1.601562,1.902344 l 0.722656,0.193359 c 0.770112,0.202925 2.176384,-0.152941 2.757813,-0.697266 l 0.539062,-0.505859 c 0.956774,-0.895731 2.50193,-1.62007 3.802735,-1.783203 l 0.07227,-0.0078 c 1.380961,-0.172543 2.955417,0.398008 3.902344,1.417968 l 0.04883,0.05273 c 0.892198,0.961028 1.608418,2.510605 1.765625,3.8125 l 0.08789,0.734375 c 0.09548,0.79067 0.947576,1.965198 1.667969,2.304687 l 0.675781,0.320313 c 0.689425,0.32489 1.914498,0.109451 2.451172,-0.431641 l 0.529297,-0.53125 C 43.789287,46.793996 44.182587,45.3968 44.001921,44.62115 L 43.833952,43.900447 C 43.536482,42.623301 43.6816,40.9231 44.191374,39.7149 l 0.0293,-0.06445 c 0.540994,-1.282292 1.822945,-2.35986 3.179688,-2.669922 l 0.07031,-0.01563 c 1.278383,-0.292152 2.97559,-0.139787 4.181641,0.375 l 0.68164,0.289062 c 0.732476,0.312647 2.173859,0.168925 2.828125,-0.285156 l 0.617188,-0.427734 c 0.626096,-0.43454 1.051792,-1.60255 0.851562,-2.337891 L 56.433563,33.85357 C 56.224317,33.085151 55.213186,32.045836 54.451141,31.814507 L 53.74411,31.59771 c -1.254787,-0.380916 -2.65386,-1.354806 -3.445313,-2.40039 l -0.04492,-0.05664 c -0.839954,-1.109676 -1.13049,-2.759812 -0.720703,-4.089844 l 0.01953,-0.07031 c 0.38656,-1.252727 1.369657,-2.646887 2.417969,-3.433594 l 0.59375,-0.443359 c 0.637009,-0.478021 1.230231,-1.802055 1.164063,-2.595704 l -0.0039,-0.0293 v -0.002 l -0.05859,-0.716796 c -0.06333,-0.759468 -0.862655,-1.712055 -1.59961,-1.90625 l -0.724609,-0.189454 c -0.770151,-0.20294 -2.176433,0.152961 -2.757813,0.697266 l -0.541015,0.50586 c -0.957228,0.89623 -2.501448,1.620639 -3.802735,1.783203 v -0.002 l -0.07031,0.0098 C 42.78893,18.830726 41.214497,18.258234 40.267578,17.238281 L 40.220703,17.1875 C 39.32851,16.226477 38.608365,14.67692 38.451172,13.375 l -0.08789,-0.734375 C 38.267812,11.849938 37.419625,10.671521 36.69922,10.332031 L 36.019531,10.015625 C 35.847178,9.9344052 35.642003,9.8861129 35.421875,9.8691406 Z M 38.306641,23.125 c 2.81022,0.07679 5.272134,2.117701 5.779297,4.994141 0.579626,3.287346 -1.614984,6.422313 -4.902344,7.001953 -3.287347,0.579613 -6.42234,-1.614984 -7.001953,-4.902344 -0.579627,-3.287347 1.614983,-6.422313 4.902343,-7.001953 0.410922,-0.07245 0.821197,-0.102767 1.222657,-0.0918 z m -16.488282,4.787109 c -0.125251,0.922729 -0.596625,1.928908 -1.226562,2.607422 l -0.400391,0.433594 c -0.697351,0.751131 -1.772052,1.142686 -2.789062,1.015625 l -0.585938,-0.07422 c -0.93667,-0.117586 -1.969208,-0.601082 -2.658203,-1.246093 L 13.337891,29.878906 C 13.03792,29.598084 12.202153,29.43531 11.818359,29.582031 l -0.824218,0.316407 c -0.400424,0.153077 -0.9949296,0.862327 -1.0761722,1.283203 l -0.1699219,0.867187 c -0.07788,0.403451 0.2299596,1.198695 0.5585941,1.445313 l 0.898437,0.673828 c 0.755541,0.566938 1.411345,1.499662 1.689453,2.402343 l 0.173828,0.5625 c 0.301811,0.979497 0.102921,2.106605 -0.515625,2.923829 l -0.355468,0.46875 c -0.570052,0.753156 -1.506283,1.405344 -2.4101566,1.679687 l -1.0742188,0.328125 c -0.3931586,0.119333 -0.9508183,0.760265 -1.015625,1.166016 l -0.140625,0.871093 c -0.067613,0.423372 0.248375,1.293437 0.5722656,1.574219 l 0.6660157,0.578125 c 0.3104626,0.269144 1.1533458,0.401517 1.5312501,0.240235 l 1.035156,-0.439453 c 0.868701,-0.37075 2.003036,-0.474103 2.923828,-0.263672 l 0.572266,0.132812 c 0.999181,0.228345 1.87894,0.963878 2.277344,1.908203 l 0.228515,0.542969 c 0.367132,0.870243 0.464255,2.0059 0.25,2.925781 l -0.255859,1.09375 c -0.09321,0.400243 0.181035,1.205879 0.5,1.464844 l 0.685547,0.556641 c 0.332789,0.270202 1.245176,0.431114 1.65039,0.291015 l 0.835938,-0.289062 c 0.388315,-0.134267 0.923401,-0.797169 0.972656,-1.205078 l 0.134766,-1.115235 c 0.113248,-0.93776 0.591722,-1.971865 1.234375,-2.664062 l 0.40039,-0.431641 c 0.697352,-0.751131 1.775959,-1.142685 2.792969,-1.015625 l 0.582031,0.07227 c 0.93727,0.117093 1.970603,0.602492 2.660157,1.248047 l 0.820312,0.767578 c 0.299971,0.280821 1.133806,0.443589 1.517578,0.296875 l 0.826172,-0.314453 C 33.37115,50.3723 33.967561,49.663129 34.048828,49.242192 L 34.214844,48.375 c 0.07788,-0.403452 -0.228007,-1.198695 -0.556641,-1.445312 L 32.759766,46.253906 C 32.00426,45.686968 31.346469,44.75617 31.068359,43.853516 l -0.171875,-0.5625 c -0.188535,-0.611887 -0.161009,-1.275058 0.02148,-1.890625 -0.692305,0.287775 -1.39401,0.674699 -1.783203,1.039062 l -0.542969,0.507813 c -0.938473,0.878581 -2.372401,1.28837 -3.650391,1.078125 -1.04487,0.809669 -2.403925,1.207567 -3.802734,0.960937 -2.629381,-0.463607 -4.395263,-2.987817 -3.931641,-5.617187 0.405643,-2.300701 2.389663,-3.940407 4.640625,-4.003907 0.321566,-0.0091 0.647892,0.01432 0.976563,0.07227 0.265272,0.04677 0.519334,0.12032 0.765625,0.207031 0.701844,-0.57455 1.60569,-1.864669 1.857422,-2.68164 l 0.01953,-0.06836 C 25.705037,32.121285 25.443411,30.645132 24.955078,30 h 0.002 l -0.04492,-0.05859 c -0.536846,-0.709202 -1.922333,-1.673276 -2.773437,-1.93164 z"
   style="color:#000000;font-style:normal;font-variant:normal;font-weight:normal;font-stretch:normal;font-size:medium;line-height:normal;font-family:sans-serif;font-variant-ligatures:normal;font-variant-position:normal;font-variant-caps:normal;font-variant-numeric:normal;font-variant-alternates:normal;font-variant-east-asian:normal;font-feature-settings:normal;font-variation-settings:normal;text-indent:0;text-align:start;text-decoration:none;text-decoration-line:none;text-decoration-style:solid;text-decoration-color:#000000;letter-spacing:normal;word-spacing:normal;text-transform:none;writing-mode:lr-tb;direction:ltr;text-orientation:mixed;dominant-baseline:auto;baseline-shift:baseline;text-anchor:start;white-space:normal;shape-padding:0;shape-margin:0;inline-size:0;clip-rule:nonzero;display:inline;overflow:visible;visibility:visible;opacity:1;isolation:auto;mix-blend-mode:normal;color-interpolation:sRGB;color-interpolation-filters:linearRGB;solid-color:#000000;solid-opacity:1;vector-effect:none;fill:#283891;fill-opacity:1;fill-rule:evenodd;stroke:none;stroke-width:1.32837;stroke-linecap:butt;stroke-linejoin:miter;stroke-miterlimit:10;stroke-dasharray:none;stroke-dashoffset:0;stroke-opacity:1;color-rendering:auto;image-rendering:auto;shape-rendering:auto;text-rendering:auto;enable-background:accumulate;stop-color:#000000;stop-opacity:1"
   id="path4596" />

</svg>

<?xml version="1.0" encoding="UTF-8" standalone="no"?>
<svg
   xmlns:dc="http://purl.org/dc/elements/1.1/"
   xmlns:cc="http://creativecommons.org/ns#"
   xmlns:rdf="http://www.w3.org/1999/02/22-rdf-syntax-ns#"
   xmlns:svg="http://www.w3.org/2000/svg"
   xmlns="http://www.w3.org/2000/svg"
   xmlns:sodipodi="http://sodipodi.sourceforge.net/DTD/sodipodi-0.dtd"
   xmlns:inkscape="http://www.inkscape.org/namespaces/inkscape"
   inkscape:version="1.0beta1 (32d4812, 2019-09-19)"
   sodipodi:docname="ci-w.svg"
   viewBox="0 0 64.426666 64.426666"
   height="64.426666"
   width="64.426666"
   xml:space="preserve"
   id="svg4498"
   version="1.1">
  <metadata
     id="metadata4504">
    <rdf:RDF>
      <cc:Work
         rdf:about="">
        <dc:format>image/svg+xml</dc:format>
        <dc:type
           rdf:resource="http://purl.org/dc/dcmitype/StillImage" />
        <dc:title></dc:title>
      </cc:Work>
    </rdf:RDF>
  </metadata>
  <defs
     id="defs4502" />
  <sodipodi:namedview
     inkscape:current-layer="g4506"
     inkscape:window-maximized="0"
     inkscape:window-y="23"
     inkscape:window-x="0"
     inkscape:cy="32.213333"
     inkscape:cx="32.213333"
     inkscape:zoom="11.128932"
     showgrid="false"
     id="namedview4500"
     inkscape:window-height="907"
     inkscape:window-width="1600"
     inkscape:pageshadow="2"
     inkscape:pageopacity="0"
     guidetolerance="10"
     gridtolerance="10"
     objecttolerance="10"
     borderopacity="1"
     inkscape:document-rotation="0"
     bordercolor="#666666"
     pagecolor="#ffffff" />
  <g
     transform="matrix(1.3333333,0,0,-1.3333333,0,64.426667)"
     inkscape:label="ci-w"
     inkscape:groupmode="layer"
     id="g4506">
    <g
       transform="translate(72,-23.681)"
       id="g4508">
      <g
         transform="translate(-47.841,65.275)"
         id="g4510">
        <g
           id="g4512">
          <g
             id="g4514">
            <g
               id="g4516">
              <g
                 style="opacity:1"
                 id="g4622">
                <path
                   id="path4626"
                   d="M -12.703125 -41.59375 C -19.013096 -41.59375 -24.160156 -36.44669 -24.160156 -30.136719 L -24.160156 -4.7324219 C -24.160156 1.577549 -19.013096 6.7246094 -12.703125 6.7246094 L 12.703125 6.7246094 C 19.013096 6.7246094 24.160156 1.577549 24.160156 -4.7324219 L 24.160156 -30.136719 C 24.160156 -36.44669 19.013096 -41.59375 12.703125 -41.59375 L -12.703125 -41.59375 z M -12.703125 -38.605469 L 12.703125 -38.605469 C 17.397854 -38.605469 21.169922 -34.831448 21.169922 -30.136719 L 21.169922 -4.7324219 C 21.169922 -0.03769271 17.397854 3.7363281 12.703125 3.7363281 L -12.703125 3.7363281 C -17.397854 3.7363281 -21.169922 -0.03769271 -21.169922 -4.7324219 L -21.169922 -30.136719 C -21.169922 -34.831448 -17.397854 -38.605469 -12.703125 -38.605469 z "
                   style="color:#000000;font-style:normal;font-variant:normal;font-weight:normal;font-stretch:normal;font-size:medium;line-height:normal;font-family:sans-serif;font-variant-ligatures:normal;font-variant-position:normal;font-variant-caps:normal;font-variant-numeric:normal;font-variant-alternates:normal;font-variant-east-asian:normal;font-feature-settings:normal;font-variation-settings:normal;text-indent:0;text-align:start;text-decoration:none;text-decoration-line:none;text-decoration-style:solid;text-decoration-color:#000000;letter-spacing:normal;word-spacing:normal;text-transform:none;writing-mode:lr-tb;direction:ltr;text-orientation:mixed;dominant-baseline:auto;baseline-shift:baseline;text-anchor:start;white-space:normal;shape-padding:0;shape-margin:0;inline-size:0;clip-rule:nonzero;display:inline;overflow:visible;visibility:visible;isolation:auto;mix-blend-mode:normal;color-interpolation:sRGB;color-interpolation-filters:linearRGB;solid-color:#000000;solid-opacity:1;vector-effect:none;fill:#283891;fill-opacity:1;fill-rule:nonzero;stroke:none;stroke-width:2.98883;stroke-linecap:butt;stroke-linejoin:miter;stroke-miterlimit:10;stroke-dasharray:none;stroke-dashoffset:0;stroke-opacity:1.0;filter-blend-mode:normal;filter-gaussianBlur-deviation:0;color-rendering:auto;image-rendering:auto;shape-rendering:auto;text-rendering:auto;enable-background:accumulate;stop-color:#000000;stop-opacity:1;" />
              </g>
            </g>
            <g
               id="g4520">
              <g
                 style="opacity:1"
                 id="g4569">
                <path
                   transform="matrix(0.75000002,0,0,-0.75000002,-24.159,6.7260015)"
                   d="M 35.421875 9.8691406 C 34.761491 9.8182239 33.970836 10.041465 33.568359 10.447266 L 33.042969 10.978516 C 32.482159 11.543967 32.086912 12.939193 32.267578 13.714844 L 32.433594 14.4375 C 32.7311 15.714662 32.585926 17.412903 32.076172 18.621094 L 32.050781 18.6875 C 31.510058 19.969035 30.227059 21.04474 28.871094 21.355469 L 28.869141 21.355469 L 28.800781 21.371094 C 27.522391 21.663243 25.821295 21.510884 24.615234 20.996094 L 23.935547 20.707031 C 23.203064 20.394383 21.759737 20.540058 21.105469 20.994141 L 20.490234 21.421875 C 19.86415 21.856397 19.438435 23.024428 19.638672 23.759766 L 19.833984 24.484375 C 20.043231 25.252799 21.054376 26.292109 21.816406 26.523438 L 22.527344 26.738281 C 23.78216 27.119197 25.181209 28.095081 25.972656 29.140625 L 26.013672 29.197266 C 26.853633 30.306932 27.146115 31.955124 26.736328 33.285156 L 26.714844 33.353516 L 26.714844 33.355469 C 26.328286 34.608189 25.347175 36.004306 24.298828 36.791016 L 23.707031 37.234375 C 23.070022 37.712411 22.474848 39.036454 22.541016 39.830078 L 22.603516 40.574219 L 22.603516 40.578125 C 22.66796 41.337281 23.468702 42.286446 24.205078 42.480469 L 24.927734 42.673828 C 25.697846 42.876753 27.104118 42.520887 27.685547 41.976562 L 28.224609 41.470703 C 29.181383 40.574972 30.726539 39.850633 32.027344 39.6875 L 32.099609 39.679688 C 33.48057 39.507145 35.055026 40.077696 36.001953 41.097656 L 36.050781 41.150391 C 36.942979 42.111419 37.659199 43.660996 37.816406 44.962891 L 37.904297 45.697266 C 37.999772 46.487936 38.851873 47.662464 39.572266 48.001953 L 40.248047 48.322266 C 40.937472 48.647156 42.162545 48.431717 42.699219 47.890625 L 43.228516 47.359375 C 43.789319 46.79394 44.182619 45.396744 44.001953 44.621094 L 43.833984 43.900391 C 43.536514 42.623245 43.681632 40.923044 44.191406 39.714844 L 44.220703 39.650391 C 44.761697 38.368099 46.043648 37.290531 47.400391 36.980469 L 47.470703 36.964844 C 48.749086 36.672692 50.446293 36.825057 51.652344 37.339844 L 52.333984 37.628906 C 53.06646 37.941553 54.507843 37.797831 55.162109 37.34375 L 55.779297 36.916016 C 56.405393 36.481476 56.831089 35.313466 56.630859 34.578125 L 56.433594 33.853516 C 56.224348 33.085097 55.213217 32.045782 54.451172 31.814453 L 53.744141 31.597656 C 52.489354 31.21674 51.090281 30.24285 50.298828 29.197266 L 50.253906 29.140625 C 49.413952 28.030949 49.123416 26.380813 49.533203 25.050781 L 49.552734 24.980469 C 49.939294 23.727742 50.922391 22.333582 51.970703 21.546875 L 52.564453 21.103516 C 53.201462 20.625495 53.794684 19.301461 53.728516 18.507812 L 53.724609 18.478516 L 53.724609 18.476562 L 53.666016 17.759766 C 53.602682 17.000298 52.803361 16.047711 52.066406 15.853516 L 51.341797 15.664062 C 50.571646 15.461122 49.165364 15.817023 48.583984 16.361328 L 48.042969 16.867188 C 47.085741 17.763418 45.541521 18.487827 44.240234 18.650391 L 44.240234 18.648438 L 44.169922 18.658203 C 42.78893 18.830726 41.214497 18.258234 40.267578 17.238281 L 40.220703 17.1875 C 39.32851 16.226477 38.608365 14.67692 38.451172 13.375 L 38.363281 12.640625 C 38.267807 11.849938 37.419624 10.671521 36.699219 10.332031 L 36.019531 10.015625 C 35.847178 9.9344052 35.642003 9.8861129 35.421875 9.8691406 z M 38.306641 23.125 C 41.116861 23.201788 43.578775 25.242701 44.085938 28.119141 C 44.665564 31.406487 42.470954 34.541454 39.183594 35.121094 C 35.896247 35.700707 32.761254 33.50611 32.181641 30.21875 C 31.602014 26.931403 33.796624 23.796437 37.083984 23.216797 C 37.494906 23.144345 37.905181 23.11403 38.306641 23.125 z M 21.818359 27.912109 C 21.693108 28.834838 21.221734 29.841017 20.591797 30.519531 L 20.191406 30.953125 C 19.494055 31.704256 18.419354 32.095811 17.402344 31.96875 L 16.816406 31.894531 C 15.879736 31.776945 14.847198 31.293449 14.158203 30.648438 L 13.337891 29.878906 C 13.03792 29.598084 12.202153 29.43531 11.818359 29.582031 L 10.994141 29.898438 C 10.593717 30.051515 9.9992114 30.760765 9.9179688 31.181641 L 9.7480469 32.048828 C 9.6701669 32.452279 9.9780065 33.247523 10.306641 33.494141 L 11.205078 34.167969 C 11.960619 34.734907 12.616423 35.667631 12.894531 36.570312 L 13.068359 37.132812 C 13.37017 38.112309 13.17128 39.239417 12.552734 40.056641 L 12.197266 40.525391 C 11.627214 41.278547 10.690983 41.930735 9.7871094 42.205078 L 8.7128906 42.533203 C 8.319732 42.652536 7.7620723 43.293468 7.6972656 43.699219 L 7.5566406 44.570312 C 7.4890273 44.993684 7.8050156 45.863749 8.1289062 46.144531 L 8.7949219 46.722656 C 9.1053845 46.9918 9.9482677 47.124173 10.326172 46.962891 L 11.361328 46.523438 C 12.230029 46.152688 13.364364 46.049335 14.285156 46.259766 L 14.857422 46.392578 C 15.856603 46.620923 16.736362 47.356456 17.134766 48.300781 L 17.363281 48.84375 C 17.730413 49.713993 17.827536 50.84965 17.613281 51.769531 L 17.357422 52.863281 C 17.264209 53.263524 17.538457 54.06916 17.857422 54.328125 L 18.542969 54.884766 C 18.875758 55.154968 19.788145 55.31588 20.193359 55.175781 L 21.029297 54.886719 C 21.417612 54.752452 21.952698 54.08955 22.001953 53.681641 L 22.136719 52.566406 C 22.249967 51.628646 22.728441 50.594541 23.371094 49.902344 L 23.771484 49.470703 C 24.468836 48.719572 25.547443 48.328018 26.564453 48.455078 L 27.146484 48.527344 C 28.083754 48.644437 29.117087 49.129836 29.806641 49.775391 L 30.626953 50.542969 C 30.926924 50.82379 31.760759 50.986558 32.144531 50.839844 L 32.970703 50.525391 C 33.37115 50.372296 33.967561 49.663125 34.048828 49.242188 L 34.214844 48.375 C 34.29272 47.971548 33.986837 47.176305 33.658203 46.929688 L 32.759766 46.253906 C 32.00426 45.686968 31.346469 44.75617 31.068359 43.853516 L 30.896484 43.291016 C 30.707949 42.679129 30.735475 42.015958 30.917969 41.400391 C 30.225664 41.688166 29.523959 42.07509 29.134766 42.439453 L 28.591797 42.947266 C 27.653324 43.825847 26.219396 44.235636 24.941406 44.025391 C 23.896536 44.83506 22.537481 45.232958 21.138672 44.986328 C 18.509291 44.522721 16.743409 41.998511 17.207031 39.369141 C 17.612674 37.06844 19.596694 35.428734 21.847656 35.365234 C 22.169222 35.356163 22.495548 35.379551 22.824219 35.4375 C 23.089491 35.484273 23.343553 35.55782 23.589844 35.644531 C 24.291688 35.069981 25.195534 33.779862 25.447266 32.962891 L 25.466797 32.894531 C 25.705037 32.121285 25.443411 30.645132 24.955078 30 L 24.957031 30 L 24.912109 29.941406 C 24.375263 29.232204 22.989776 28.26813 22.138672 28.009766 L 21.818359 27.912109 z "
                   style="color:#000000;font-style:normal;font-variant:normal;font-weight:normal;font-stretch:normal;font-size:medium;line-height:normal;font-family:sans-serif;font-variant-ligatures:normal;font-variant-position:normal;font-variant-caps:normal;font-variant-numeric:normal;font-variant-alternates:normal;font-variant-east-asian:normal;font-feature-settings:normal;font-variation-settings:normal;text-indent:0;text-align:start;text-decoration:none;text-decoration-line:none;text-decoration-style:solid;text-decoration-color:#000000;letter-spacing:normal;word-spacing:normal;text-transform:none;writing-mode:lr-tb;direction:ltr;text-orientation:mixed;dominant-baseline:auto;baseline-shift:baseline;text-anchor:start;white-space:normal;shape-padding:0;shape-margin:0;inline-size:0;clip-rule:nonzero;display:inline;overflow:visible;visibility:visible;isolation:auto;mix-blend-mode:normal;color-interpolation:sRGB;color-interpolation-filters:linearRGB;solid-color:#000000;solid-opacity:1;vector-effect:none;fill:#283891;fill-opacity:1;fill-rule:evenodd;stroke:none;stroke-width:1.32837;stroke-linecap:butt;stroke-linejoin:miter;stroke-miterlimit:10;stroke-dasharray:none;stroke-dashoffset:0;stroke-opacity:1;color-rendering:auto;image-rendering:auto;shape-rendering:auto;text-rendering:auto;enable-background:accumulate;stop-color:#000000;stop-opacity:1"
                   id="path4596" />
              </g>
            </g>
            <g
               id="g4524">
              <g
                 style="opacity:1"
                 id="g4575" />
            </g>
          </g>
        </g>
      </g>
    </g>
  </g>
</svg>
